X: 23641
T: Limerick Lasses, The
R: reel
M: 4/4
K: Dmajor
dBAF DFAG|GFGA BE E2|dBAF DFAF|GBAG FD [A,D]2:|
dcde f2 fe|dfed cAAB|cdef g2 ag|faeg fd d2:|
BdAd BdAd|Bdef gfed|BdAd BdA2|1 faeg fd dd:|2 faef d2 z2||

